X: 1
T: Tommy's Tarbuckus
R: reel
Z: 2006 John Chambers <jc@trillian.mit.edu>
N: Also in Gm
S: handwritten MS
M: C|
L: 1/8
K: Gm
|: d2cd BGGB | AFcF dFcF | d2cd BGGB | AFcA  BGG2 \
|  d2cd BGGB | AFcF dFcF | d2Bd AFFA | Ggdc  BGG2 :|
|: DGBG EGcB | Acfe dbfd | DGBG EGcB | AfcA  BGGG \
|  DGBG EGBc | Acfe dbfd | fdBe cAFE | DG^FA BGG2 :|
